X:1
T:Title
L:1/8
Q:1/4=100
M:4/4
K:C
V:1 treble nm="Grand Piano"
V:1
 G G2 G AGFE | G G2 G AGFE | G G2 G AGFE | G2 AB A4 | G G2 G AGFE | G G2 G AGFE | G G2 G AGFE | %7
w: ?????~????~???? * * * * * *|||||||
 G2 F2 E4 | z ccc c2 A2 | BB c2 B4 | z BBB B2 G2 | GFFE E4 | z ccc c2 A2 | BB c2 B4 | z BBB B2 G2 | %15
w: ||||||||
 GFFE E4 |] %16
w: |

